X:1
T:RVW2/1/117 The Squire in the North Countree
T:RVW2/1/117 The Squire in the North Countree
T:Transcribed by Simon Furey and Lewis Jones Sung by Mr. Verrall, September 8th, 1908 [3 of 3]
C:Transcribed by Simon Furey and Lewis Jones
C:Sung by Mr. Verrall, September 8th, 1908 [3 of 3]
L:1/8
Q:1/4=100
M:2/4
K:D
V:1 treble 
V:1
"^(a)""^(Editorial suggestion)" A2 | d2 e>c | d2 (3ABc |"^(b)" d<f e>c | d2 d>c | B>A B>c | d2 dd | %7
 A3 A | d>e d>c | A>F D>F | G>F G>A | B2 (3ABc | d>e d>F |"^(c)" c>G E>F | D4- | D2 || %16
"^(a) var. 1" d2 | f2 e>f | d2 (3ABc |"^(b) var." d>f e>c | d2 d>c | B>A B>c | d2 dd | A3 A | %24
 d>e d>c | A>F D>F | G>F G>A | B2 (3ABc | d>e d>F |"^(c) var. 1" A<G E>F | D4- | D2 || %32
"^(a) var. 2" A2 | d>f e>c | d2 (3ABc | d<f e>c | d2 d>c | B>A B>c | d2 dd | A3 A | d>e d>c | %41
 A>F D>F | G>F G>A | B2 (3ABc | d>e d>F |"^(c) var. 2" A<G E>C | D4- | D2 || A2 | d2 e>c | %50
 d2 (3ABc | d<f e>c | d2 d>c | B>A B>c | d2 dd | A3 A | d>e d>c | A>F D>F | G>F G>A | B2 (3ABc | %60
 d>e d>F |"^(c) var. 3" A2 (3GFE | D4- | D2 |] %64

